lib/svgs/twitter.svg

<?xml version="1.0" encoding="UTF-8" standalone="no"?>
<svg width="20px" height="20px" viewBox="0 0 20 20" version="1.1" xmlns="http://www.w3.org/2000/svg" xmlns:xlink="http://www.w3.org/1999/xlink">
    <defs></defs>
    <g id="Icons" stroke="none" stroke-width="1" fill="none" fill-rule="evenodd">
        <g id="Web" transform="translate(-145.000000, -1036.000000)" fill="#000000">
            <g id="brand/twitter" transform="translate(145.000000, 1036.000000)">
                <path d="M16.15632,6.06129151 C16.28128,5.99876999 16.40624,5.87388684 16.5,5.7801845 C17,5.40537515 17.31248,4.90568266 17.56256,4.2499262 L17.15632,4.46851169 C16.75008,4.68709717 16.0312,4.99938499 15.4688,5.03056581 C14.84368,4.46851169 14.15632,4 12.87504,4 L12.4688,4.06252153 C12.21872,4.12488315 11.9688,4.18740467 11.75008,4.28110701 C10.81248,4.68709717 10.18752,5.43655597 9.90624,6.49846248 C9.78128,6.90445264 9.71872,7.59154982 9.87504,8.02872079 C9.34368,8.02872079 8.84368,7.93501845 8.40624,7.84131611 C6.65632,7.40414514 5.59376,6.84193112 4.40624,5.90506765 C4.0312,5.62396064 3.68752,5.31167282 3.40624,4.96820418 C3.31248,4.84316113 3.18752,4.7496187 3.12496,4.62457565 L3.09376,4.62457565 C2.9688,4.87450185 2.84368,5.15560886 2.75008,5.46789668 C2.43744,6.71704797 2.93744,7.74777368 3.5,8.43471095 C3.65632,8.65345633 3.93744,8.77833948 4.09376,8.96574416 C3.9688,9.02810578 3.78128,8.96574416 3.65632,8.93440344 C3.40624,8.87204182 2.75008,8.62211562 2.62496,8.59093481 C2.62496,9.96512915 3.31248,10.8394711 4.18752,11.4016851 C4.4688,11.557909 4.84368,11.8076753 5.24992,11.8076753 C5.0312,11.99508 4.09376,11.9013776 3.78128,11.8701968 C4.18752,12.9007626 4.81248,13.6190406 5.87504,13.9938499 C6.15632,14.0875523 6.4688,14.1500738 6.84368,14.1500738 C6.65632,14.3998401 6.21872,14.5872448 5.9688,14.7434686 C5.37504,15.0557565 2.31248,15.5241082 2,15.5241082 C2.09376,15.555449 2.18752,15.6178106 2.28128,15.6803321 C2.59376,15.8677368 2.87504,16.0238007 3.21872,16.1800246 C3.81248,16.4297909 4.43744,16.6171956 5.15632,16.8046002 C6.56256,17.1482288 8.56256,16.9920049 9.78128,16.6171956 C13.21872,15.5241082 15.40624,13.0256458 16.21872,9.34055351 C16.37504,8.71581796 16.37504,7.99753998 16.37504,7.24808118 L16.87504,6.84193112 C17.31248,6.49846248 17.71872,6.0299508 18,5.56159902 C17.43744,5.71766298 16.84368,6.06129151 16.15632,6.06129151 L16.15632,6.06129151 Z" id="Shape"></path>
            </g>
        </g>
    </g>
</svg>

<svg xmlns="http://www.w3.org/2000/svg" viewBox="0 0 20 20">
    <path fill="#000" fill-rule="evenodd" d="M16.156 6.061c.125-.062.25-.187.344-.28a3.23 3.23 0 0 0 1.063-1.531l-.407.219a4.679 4.679 0 0 1-1.687.562A3.503 3.503 0 0 0 12.875 4l-.406.063c-.25.062-.5.124-.719.218a3.172 3.172 0 0 0-1.844 2.217 2.823 2.823 0 0 0-.031 1.53 6.98 6.98 0 0 1-1.469-.187 9.583 9.583 0 0 1-4-1.936 5.73 5.73 0 0 1-1-.937c-.094-.125-.218-.218-.281-.343h-.031a5.26 5.26 0 0 0-.344.843c-.313 1.249.187 2.28.75 2.967.156.218.437.343.594.53-.125.063-.313 0-.438-.03-.25-.063-.906-.313-1.031-.344a3.18 3.18 0 0 0 1.563 2.81c.28.157.656.407 1.062.407-.219.187-1.156.093-1.469.062.407 1.03 1.031 1.749 2.094 2.124.281.094.594.156.969.156-.188.25-.625.437-.875.593-.594.313-3.657.781-3.969.781.094.031.188.094.281.156.313.188.594.344.938.5.593.25 1.218.437 1.937.625 1.407.343 3.407.187 4.625-.188 3.438-1.093 5.625-3.591 6.438-7.276.156-.625.156-1.343.156-2.093l.5-.406A4.885 4.885 0 0 0 18 5.562c-.563.156-1.156.5-1.844.5z"/>
</svg>
